packages/foundations/assets/icons/functional/images/buildings/train_station_16.svg

<svg width="16" height="16" viewBox="0 0 16 16" fill="none" xmlns="http://www.w3.org/2000/svg">
<g clip-path="url(#clip0_184_221)">
<path fill-rule="evenodd" clip-rule="evenodd" d="M11.2 1.59997C11.65 1.59997 12 1.94997 12 2.39997V7.19997H13.6C14.05 7.19997 14.4 7.54997 14.4 7.99997V13.6C14.4 14.05 14.05 14.4 13.6 14.4H9.60003C9.4946 14.4013 9.38997 14.3815 9.2923 14.3418C9.19464 14.3021 9.10591 14.2432 9.03135 14.1686C8.9568 14.0941 8.89792 14.0054 8.85819 13.9077C8.81846 13.81 8.79869 13.7054 8.80003 13.6V12H7.20003V13.6C7.20003 14.05 6.85003 14.4 6.40003 14.4H2.40003C2.2946 14.4013 2.18997 14.3815 2.0923 14.3418C1.99464 14.3021 1.90591 14.2432 1.83135 14.1686C1.7568 14.0941 1.69792 14.0054 1.65819 13.9077C1.61846 13.81 1.59869 13.7054 1.60003 13.6V7.99997C1.60003 7.54997 1.95003 7.19997 2.40003 7.19997H4.00003V2.39997C4.00003 1.94997 4.35003 1.59997 4.80003 1.59997H11.2ZM10.4 3.19997H5.60003V8.79997H3.20003V12.8H5.60003V11.2C5.60003 10.75 5.95003 10.4 6.40003 10.4H9.60003C10.05 10.4 10.4 10.75 10.4 11.2V12.8H12.8V8.79997H10.4V3.19997ZM7.20003 7.19997V5.59997H8.80003V7.19997H7.20003Z" fill="#1A1C1F"/>
</g>
<defs>
<clipPath id="clip0_184_221">
<rect width="16" height="16" fill="white"/>
</clipPath>
</defs>
</svg>

<svg xmlns="http://www.w3.org/2000/svg" width="16" height="16" fill="none"><g clip-path="url(#a)"><path fill="#1A1C1F" fill-rule="evenodd" d="M11.2 1.6c.45 0 .8.35.8.8v4.8h1.6c.45 0 .8.35.8.8v5.6c0 .45-.35.8-.8.8h-4a.79.79 0 0 1-.8-.8V12H7.2v1.6c0 .45-.35.8-.8.8h-4a.79.79 0 0 1-.8-.8V8c0-.45.35-.8.8-.8H4V2.4c0-.45.35-.8.8-.8zm-.8 1.6H5.6v5.6H3.2v4h2.4v-1.6c0-.45.35-.8.8-.8h3.2c.45 0 .8.35.8.8v1.6h2.4v-4h-2.4zm-3.2 4V5.6h1.6v1.6z" clip-rule="evenodd"/></g><defs><clipPath id="a"><path fill="#fff" d="M0 0h16v16H0z"/></clipPath></defs></svg>
